src/img/features/feature-2.svg

<svg width="69" height="44" viewBox="0 0 69 44" fill="none" xmlns="http://www.w3.org/2000/svg">
<path d="M63.9853 18.2353L62.2244 11.1916C62.7058 11.0893 63.0671 10.6622 63.0671 10.1505V9.0148C63.0671 6.549 61.0609 4.54299 58.5953 4.54299H50.5744V2.20044C50.5744 0.987065 49.5874 0 48.374 0H7.48865C6.27528 0 5.28821 0.987065 5.28821 2.20044V21.5074C5.28821 22.0954 5.76488 22.5722 6.35297 22.5722C6.94093 22.5722 7.41773 22.0955 7.41773 21.5074V2.20044C7.41773 2.16126 7.44947 2.12952 7.48865 2.12952H48.3739C48.413 2.12952 48.4448 2.16126 48.4448 2.20044V21.5077C48.4448 22.0957 48.9215 22.5725 49.5096 22.5725C50.0975 22.5725 50.5743 22.0958 50.5743 21.5077V20.3007H63.1343C63.1353 20.3007 63.1361 20.301 63.1371 20.301C63.1381 20.301 63.1391 20.3008 63.14 20.3008C64.6855 20.3019 65.9979 21.3163 66.4486 22.7142H63.1379C62.5499 22.7142 62.0731 23.1908 62.0731 23.7789V26.0503C62.0731 27.8899 63.5696 29.3864 65.4092 29.3864H66.616V34.0711H63.8319C62.9174 31.4304 60.4071 29.5283 57.4593 29.5283C54.5115 29.5283 52.0011 31.4304 51.0867 34.0711H50.574V26.0502C50.574 25.4622 50.0974 24.9854 49.5093 24.9854C48.9213 24.9854 48.4445 25.4621 48.4445 26.0502V34.0709H26.354C25.4395 31.4301 22.9292 29.528 19.9814 29.528C17.0336 29.528 14.5232 31.4301 13.6088 34.0709H7.48865C7.44947 34.0709 7.41773 34.0391 7.41773 33.9999V31.6575H12.0315C12.6195 31.6575 13.0963 31.1809 13.0963 30.5928C13.0963 30.0047 12.6196 29.528 12.0315 29.528H1.81024C1.22228 29.528 0.745483 30.0047 0.745483 30.5928C0.745483 31.1809 1.22215 31.6575 1.81024 31.6575H5.28834V33.9999C5.28834 35.2133 6.27541 36.2004 7.48879 36.2004H13.2401C13.2398 36.224 13.2383 36.2475 13.2383 36.2713C13.2383 39.9895 16.2633 43.0145 19.9814 43.0145C23.6995 43.0145 26.7246 39.9895 26.7246 36.2713C26.7246 36.2474 26.723 36.224 26.7227 36.2004H50.718C50.7177 36.224 50.7162 36.2475 50.7162 36.2713C50.7162 39.9895 53.7412 43.0145 57.4593 43.0145C61.1774 43.0145 64.2025 39.9895 64.2025 36.2713C64.2025 36.2474 64.2009 36.224 64.2006 36.2004H67.6807C68.2687 36.2004 68.7455 35.7237 68.7455 35.1356V23.7787C68.7456 20.9747 66.6768 18.6451 63.9853 18.2353ZM50.5744 6.67238H58.5953C59.8869 6.67238 60.9377 7.7232 60.9377 9.0148V9.08572H50.5744V6.67238ZM50.5744 18.1713V11.2151H60.0354L61.7744 18.1713H50.5744ZM19.9814 40.8853C17.4374 40.8853 15.3676 38.8157 15.3676 36.2716C15.3676 33.7274 17.4374 31.6578 19.9814 31.6578C22.5254 31.6578 24.5952 33.7274 24.5952 36.2716C24.5952 38.8157 22.5254 40.8853 19.9814 40.8853ZM57.4596 40.8853C54.9156 40.8853 52.8458 38.8157 52.8458 36.2716C52.8458 33.7274 54.9156 31.6578 57.4596 31.6578C60.0036 31.6578 62.0734 33.7274 62.0734 36.2716C62.0734 38.8157 60.0036 40.8853 57.4596 40.8853ZM66.6162 27.2569H65.4095C64.7441 27.2569 64.2028 26.7156 64.2028 26.0502V24.8434H66.6161V27.2569H66.6162Z" fill="url(#paint0_linear)"/>
<path d="M19.9814 34.0712C18.7681 34.0712 17.781 35.0582 17.781 36.2716C17.781 37.485 18.7681 38.4721 19.9814 38.4721C21.1948 38.4721 22.1819 37.485 22.1819 36.2716C22.1819 35.0582 21.1948 34.0712 19.9814 34.0712Z" fill="url(#paint1_linear)"/>
<path d="M57.4596 34.0712C56.2462 34.0712 55.2592 35.0582 55.2592 36.2716C55.2592 37.485 56.2462 38.4721 57.4596 38.4721C58.673 38.4721 59.66 37.485 59.66 36.2716C59.66 35.0582 58.673 34.0712 57.4596 34.0712Z" fill="url(#paint2_linear)"/>
<path d="M44.9668 29.5284H29.067C28.4791 29.5284 28.0023 30.0051 28.0023 30.5932C28.0023 31.1813 28.4789 31.658 29.067 31.658H44.9668C45.5548 31.658 46.0316 31.1813 46.0316 30.5932C46.0316 30.0051 45.5549 29.5284 44.9668 29.5284Z" fill="url(#paint3_linear)"/>
<path d="M17.7101 24.9856H4.08161C3.49364 24.9856 3.01685 25.4623 3.01685 26.0504C3.01685 26.6385 3.49351 27.1151 4.08161 27.1151H17.7101C18.298 27.1151 18.7748 26.6385 18.7748 26.0504C18.7748 25.4623 18.298 24.9856 17.7101 24.9856Z" fill="url(#paint4_linear)"/>
<path d="M37.7699 10.5332C37.3542 10.1175 36.6799 10.1175 36.2642 10.5333L26.7957 20.0017L21.8701 15.0761C21.4542 14.6602 20.7801 14.6602 20.3644 15.0761C19.9485 15.4919 19.9485 16.1659 20.3644 16.5818L26.0429 22.2603C26.2508 22.4683 26.5233 22.5721 26.7957 22.5721C27.0681 22.5721 27.3408 22.4683 27.5485 22.2603L37.7697 12.039C38.1856 11.6231 38.1856 10.949 37.7699 10.5332Z" fill="url(#paint5_linear)"/>
<defs>
<linearGradient id="paint0_linear" x1="68.7455" y1="-34.4117" x2="0.51021" y2="-34.2758" gradientUnits="userSpaceOnUse">
<stop stop-color="#F59E27"/>
<stop offset="1" stop-color="#FC5829"/>
</linearGradient>
<linearGradient id="paint1_linear" x1="22.1819" y1="30.5504" x2="17.7658" y2="30.556" gradientUnits="userSpaceOnUse">
<stop stop-color="#F59E27"/>
<stop offset="1" stop-color="#FC5829"/>
</linearGradient>
<linearGradient id="paint2_linear" x1="59.66" y1="30.5504" x2="55.2439" y2="30.556" gradientUnits="userSpaceOnUse">
<stop stop-color="#F59E27"/>
<stop offset="1" stop-color="#FC5829"/>
</linearGradient>
<linearGradient id="paint3_linear" x1="46.0316" y1="27.8248" x2="27.9419" y2="28.0177" gradientUnits="userSpaceOnUse">
<stop stop-color="#F59E27"/>
<stop offset="1" stop-color="#FC5829"/>
</linearGradient>
<linearGradient id="paint4_linear" x1="18.7748" y1="23.282" x2="2.96364" y2="23.4293" gradientUnits="userSpaceOnUse">
<stop stop-color="#F59E27"/>
<stop offset="1" stop-color="#FC5829"/>
</linearGradient>
<linearGradient id="paint5_linear" x1="38.0816" y1="0.340841" x2="19.9901" y2="0.374106" gradientUnits="userSpaceOnUse">
<stop stop-color="#F59E27"/>
<stop offset="1" stop-color="#FC5829"/>
</linearGradient>
</defs>
</svg>

<svg width="69" height="44" fill="none" xmlns="http://www.w3.org/2000/svg"><path d="M63.985 18.235l-1.76-7.043c.48-.103.842-.53.842-1.042V9.015a4.477 4.477 0 0 0-4.472-4.472h-8.02V2.2c0-1.213-.988-2.2-2.201-2.2H7.489c-1.214 0-2.2.987-2.2 2.2v19.307a1.065 1.065 0 0 0 2.129 0V2.2c0-.039.031-.07.07-.07h40.886c.039 0 .07.031.07.07v19.308a1.065 1.065 0 0 0 2.13 0V20.3H63.14a3.484 3.484 0 0 1 3.309 2.413h-3.311c-.588 0-1.065.477-1.065 1.065v2.271a3.34 3.34 0 0 0 3.336 3.336h1.207v4.685h-2.784c-.915-2.64-3.425-4.543-6.373-4.543-2.948 0-5.458 1.902-6.372 4.543h-.513v-8.02a1.065 1.065 0 1 0-2.13 0v8.02h-22.09c-.915-2.64-3.425-4.543-6.373-4.543-2.947 0-5.458 1.902-6.372 4.543h-6.12A.071.071 0 0 1 7.418 34v-2.343h4.613a1.065 1.065 0 1 0 0-2.129H1.811a1.065 1.065 0 0 0 0 2.13h3.477V34c0 1.213.987 2.2 2.2 2.2h5.752l-.002.071a6.75 6.75 0 0 0 6.743 6.743 6.75 6.75 0 0 0 6.744-6.743l-.002-.07h23.995l-.002.07a6.75 6.75 0 0 0 6.743 6.743 6.75 6.75 0 0 0 6.743-6.743l-.001-.07h3.48c.588 0 1.065-.477 1.065-1.065V23.779a5.616 5.616 0 0 0-4.76-5.544zM50.575 6.672h8.02a2.345 2.345 0 0 1 2.343 2.343v.07H50.574V6.673zm0 11.5v-6.957h9.46l1.74 6.956h-11.2zM19.98 40.884a4.619 4.619 0 0 1-4.613-4.613 4.619 4.619 0 0 1 4.613-4.614 4.619 4.619 0 0 1 4.614 4.614 4.619 4.619 0 0 1-4.614 4.613zm37.479 0a4.619 4.619 0 0 1-4.614-4.613 4.619 4.619 0 0 1 4.614-4.614 4.619 4.619 0 0 1 4.613 4.614 4.619 4.619 0 0 1-4.613 4.613zm9.156-13.628H65.41a1.208 1.208 0 0 1-1.206-1.207v-1.207h2.413v2.414z" fill="url(#paint0_linear)"/><path d="M19.981 34.071c-1.213 0-2.2.987-2.2 2.2 0 1.214.987 2.201 2.2 2.201 1.214 0 2.2-.987 2.2-2.2 0-1.214-.986-2.2-2.2-2.2z" fill="url(#paint1_linear)"/><path d="M57.46 34.071c-1.214 0-2.2.987-2.2 2.2 0 1.214.986 2.201 2.2 2.201 1.213 0 2.2-.987 2.2-2.2 0-1.214-.987-2.2-2.2-2.2z" fill="url(#paint2_linear)"/><path d="M44.967 29.528h-15.9a1.065 1.065 0 0 0 0 2.13h15.9a1.065 1.065 0 0 0 0-2.13z" fill="url(#paint3_linear)"/><path d="M17.71 24.986H4.082a1.065 1.065 0 0 0 0 2.13H17.71a1.065 1.065 0 0 0 0-2.13z" fill="url(#paint4_linear)"/><path d="M37.77 10.533a1.065 1.065 0 0 0-1.506 0l-9.468 9.469-4.926-4.926a1.064 1.064 0 1 0-1.506 1.506l5.679 5.678a1.06 1.06 0 0 0 1.506 0l10.22-10.221a1.065 1.065 0 0 0 0-1.506z" fill="url(#paint5_linear)"/><defs><linearGradient id="paint0_linear" x1="68.746" y1="-34.412" x2=".51" y2="-34.276" gradientUnits="userSpaceOnUse"><stop stop-color="#F59E27"/><stop offset="1" stop-color="#FC5829"/></linearGradient><linearGradient id="paint1_linear" x1="22.182" y1="30.55" x2="17.766" y2="30.556" gradientUnits="userSpaceOnUse"><stop stop-color="#F59E27"/><stop offset="1" stop-color="#FC5829"/></linearGradient><linearGradient id="paint2_linear" x1="59.66" y1="30.55" x2="55.244" y2="30.556" gradientUnits="userSpaceOnUse"><stop stop-color="#F59E27"/><stop offset="1" stop-color="#FC5829"/></linearGradient><linearGradient id="paint3_linear" x1="46.032" y1="27.825" x2="27.942" y2="28.018" gradientUnits="userSpaceOnUse"><stop stop-color="#F59E27"/><stop offset="1" stop-color="#FC5829"/></linearGradient><linearGradient id="paint4_linear" x1="18.775" y1="23.282" x2="2.964" y2="23.429" gradientUnits="userSpaceOnUse"><stop stop-color="#F59E27"/><stop offset="1" stop-color="#FC5829"/></linearGradient><linearGradient id="paint5_linear" x1="38.082" y1=".341" x2="19.99" y2=".374" gradientUnits="userSpaceOnUse"><stop stop-color="#F59E27"/><stop offset="1" stop-color="#FC5829"/></linearGradient></defs></svg>
